svg/color/itam.svg

<?xml version="1.0" encoding="UTF-8" ?>
<!DOCTYPE svg PUBLIC "-//W3C//DTD SVG 1.1//EN" "http://www.w3.org/Graphics/SVG/1.1/DTD/svg11.dtd">
<svg width="250pt" height="250pt" viewBox="0 0 250 250" version="1.1" xmlns="http://www.w3.org/2000/svg">
<g id="#ffffffff">
<path fill="#ffffff" opacity="1.00" d=" M 0.00 0.00 L 250.00 0.00 L 250.00 250.00 L 0.00 250.00 L 0.00 0.00 M 46.90 35.12 C 46.94 50.08 46.86 65.03 46.94 79.99 C 33.92 87.51 20.90 95.02 7.85 102.49 C 7.85 116.00 7.87 129.51 7.83 143.02 C 7.84 144.62 7.98 146.20 8.23 147.78 C 21.20 155.05 34.05 162.54 46.91 170.00 C 46.91 185.06 46.89 200.12 46.92 215.18 L 48.03 215.13 L 48.04 215.68 C 60.70 222.89 73.37 230.07 85.97 237.39 C 98.78 229.70 112.03 222.75 124.74 214.91 L 124.88 214.99 L 125.08 214.87 C 137.91 222.63 151.16 229.68 164.02 237.40 C 176.65 230.00 189.46 222.91 202.10 215.52 C 203.65 214.53 202.91 212.49 203.12 210.99 C 203.06 197.33 203.12 183.66 203.09 170.00 C 215.98 162.55 228.83 155.03 241.82 147.75 C 242.60 132.71 241.91 117.60 242.17 102.53 C 229.13 94.93 215.92 87.62 202.99 79.82 C 203.26 66.55 202.99 53.26 203.12 39.99 C 203.16 38.20 203.11 36.41 202.71 34.66 C 189.73 27.47 176.87 20.04 164.04 12.59 C 151.15 20.32 137.90 27.43 125.00 35.15 C 112.12 27.42 98.86 20.32 85.97 12.60 C 73.03 20.25 59.83 27.45 46.90 35.12 Z" />
</g>
<g id="#b31148ff">
<path fill="#b31148" opacity="1.00" d=" M 46.90 35.12 C 59.83 27.45 73.03 20.25 85.97 12.60 C 98.86 20.32 112.12 27.42 125.00 35.15 C 137.90 27.43 151.15 20.32 164.04 12.59 C 176.87 20.04 189.73 27.47 202.71 34.66 L 202.11 35.80 C 189.27 43.08 176.75 50.93 163.64 57.73 C 151.01 65.36 137.90 72.19 125.38 80.02 C 125.28 80.09 125.07 80.22 124.97 80.29 C 111.91 87.56 99.22 95.51 85.99 102.48 C 73.19 95.37 60.68 87.75 47.85 80.69 C 47.36 95.61 47.82 110.54 47.61 125.47 L 47.04 125.14 C 46.90 110.09 47.10 95.04 46.94 79.99 C 46.86 65.03 46.94 50.08 46.90 35.12 M 47.82 35.70 C 47.47 50.29 47.56 64.90 47.77 79.49 C 60.68 72.54 73.21 64.90 86.01 57.75 C 73.41 50.19 60.66 42.84 47.82 35.70 Z" />
</g>
<g id="#840019ff">
<path fill="#840019" opacity="1.00" d=" M 202.71 34.66 C 203.11 36.41 203.16 38.20 203.12 39.99 C 202.99 53.26 203.26 66.55 202.99 79.82 L 202.36 80.29 L 202.09 79.41 C 202.08 64.87 202.08 50.33 202.11 35.80 L 202.71 34.66 Z" />
</g>
<g id="#b74f5bff">
<path fill="#b74f5b" opacity="1.00" d=" M 47.82 35.70 C 60.66 42.84 73.41 50.19 86.01 57.75 C 73.21 64.90 60.68 72.54 47.77 79.49 C 47.56 64.90 47.47 50.29 47.82 35.70 Z" />
</g>
<g id="#970f3cff">
<path fill="#970f3c" opacity="1.00" d=" M 163.64 57.73 C 176.75 50.93 189.27 43.08 202.11 35.80 C 202.08 50.33 202.08 64.87 202.09 79.41 C 189.25 72.24 176.75 64.40 163.64 57.73 Z" />
<path fill="#970f3c" opacity="1.00" d=" M 85.99 102.48 C 99.22 95.51 111.91 87.56 124.97 80.29 C 125.02 95.17 125.00 110.06 124.99 124.95 C 112.06 132.52 99.00 139.88 86.04 147.43 L 85.78 147.29 C 86.24 132.36 85.88 117.41 85.99 102.48 Z" />
</g>
<g id="#482f76ff">
<path fill="#482f76" opacity="1.00" d=" M 163.64 57.73 C 176.75 64.40 189.25 72.24 202.09 79.41 L 202.36 80.29 C 189.78 87.99 176.88 95.18 164.03 102.42 C 154.66 97.44 145.59 91.93 136.39 86.66 C 132.64 84.59 128.89 82.49 125.38 80.02 C 137.90 72.19 151.01 65.36 163.64 57.73 Z" />
</g>
<g id="#fbc56fff">
<path fill="#fbc56f" opacity="1.00" d=" M 7.85 102.49 C 20.90 95.02 33.92 87.51 46.94 79.99 C 47.10 95.04 46.90 110.09 47.04 125.14 C 34.26 118.20 21.96 110.40 9.11 103.59 C 8.80 103.31 8.16 102.76 7.85 102.49 Z" />
<path fill="#fbc56f" opacity="1.00" d=" M 86.04 147.43 C 99.00 139.88 112.06 132.52 124.99 124.95 C 137.81 132.54 150.81 139.84 163.70 147.33 C 160.18 150.06 156.15 152.00 152.32 154.25 C 143.19 159.55 134.02 164.77 124.93 170.13 C 112.03 162.45 98.88 155.21 86.04 147.43 Z" />
</g>
<g id="#50358cff">
<path fill="#50358c" opacity="1.00" d=" M 124.97 80.29 C 125.07 80.22 125.28 80.09 125.38 80.02 C 128.89 82.49 132.64 84.59 136.39 86.66 C 145.59 91.93 154.66 97.44 164.03 102.42 C 163.98 117.29 164.02 132.17 164.00 147.04 L 163.70 147.33 C 150.81 139.84 137.81 132.54 124.99 124.95 C 125.00 110.06 125.02 95.17 124.97 80.29 Z" />
<path fill="#50358c" opacity="1.00" d=" M 125.08 214.87 C 138.02 207.32 150.98 199.80 164.00 192.38 C 164.04 207.39 163.96 222.40 164.02 237.40 C 151.16 229.68 137.91 222.63 125.08 214.87 Z" />
</g>
<g id="#402559ff">
<path fill="#402559" opacity="1.00" d=" M 202.36 80.29 L 202.99 79.82 C 203.25 94.94 202.81 110.06 203.16 125.17 C 215.88 118.21 228.27 110.64 240.98 103.65 C 241.12 116.77 241.12 129.89 241.00 143.01 C 240.95 144.63 241.33 146.21 241.82 147.75 C 228.83 155.03 215.98 162.55 203.09 170.00 L 202.25 170.56 C 201.81 185.53 202.15 200.54 202.10 215.52 C 189.46 222.91 176.65 230.00 164.02 237.40 C 163.96 222.40 164.04 207.39 164.00 192.38 C 164.00 177.27 164.00 162.15 164.00 147.04 C 164.02 132.17 163.98 117.29 164.03 102.42 C 176.88 95.18 189.78 87.99 202.36 80.29 Z" />
</g>
<g id="#442d6eff">
<path fill="#442d6e" opacity="1.00" d=" M 202.99 79.82 C 215.92 87.62 229.13 94.93 242.17 102.53 C 241.87 102.81 241.28 103.37 240.98 103.65 C 228.27 110.64 215.88 118.21 203.16 125.17 C 202.81 110.06 203.25 94.94 202.99 79.82 Z" />
</g>
<g id="#b53d54ff">
<path fill="#b53d54" opacity="1.00" d=" M 47.85 80.69 C 60.68 87.75 73.19 95.37 85.99 102.48 C 85.88 117.41 86.24 132.36 85.78 147.29 C 72.94 140.22 60.35 132.71 47.61 125.47 C 47.82 110.54 47.36 95.61 47.85 80.69 Z" />
</g>
<g id="#f09f3bff">
<path fill="#f09f3b" opacity="1.00" d=" M 7.85 102.49 C 8.16 102.76 8.80 103.31 9.11 103.59 C 8.62 114.06 9.02 124.53 8.86 135.00 C 8.71 139.26 9.52 143.63 8.23 147.78 C 7.98 146.20 7.84 144.62 7.83 143.02 C 7.87 129.51 7.85 116.00 7.85 102.49 Z" />
</g>
<g id="#190037ff">
<path fill="#190037" opacity="1.00" d=" M 240.98 103.65 C 241.28 103.37 241.87 102.81 242.17 102.53 C 241.91 117.60 242.60 132.71 241.82 147.75 C 241.33 146.21 240.95 144.63 241.00 143.01 C 241.12 129.89 241.12 116.77 240.98 103.65 Z" />
</g>
<g id="#f3af5dff">
<path fill="#f3af5d" opacity="1.00" d=" M 9.11 103.59 C 21.96 110.40 34.26 118.20 47.04 125.14 L 47.61 125.47 C 60.35 132.71 72.94 140.22 85.78 147.29 L 86.04 147.43 C 98.88 155.21 112.03 162.45 124.93 170.13 C 125.02 185.08 125.11 200.04 124.88 214.99 L 124.74 214.91 C 111.92 207.32 99.05 199.81 86.03 192.57 C 85.94 207.51 86.04 222.45 85.97 237.39 C 73.37 230.07 60.70 222.89 48.04 215.68 L 48.03 215.13 C 47.56 200.26 48.42 185.35 47.64 170.50 L 46.91 170.00 C 34.05 162.54 21.20 155.05 8.23 147.78 C 9.52 143.63 8.71 139.26 8.86 135.00 C 9.02 124.53 8.62 114.06 9.11 103.59 Z" />
</g>
<g id="#ed8f56ff">
<path fill="#ed8f56" opacity="1.00" d=" M 163.70 147.33 L 164.00 147.04 C 164.00 162.15 164.00 177.27 164.00 192.38 C 150.98 199.80 138.02 207.32 125.08 214.87 L 124.88 214.99 C 125.11 200.04 125.02 185.08 124.93 170.13 C 134.02 164.77 143.19 159.55 152.32 154.25 C 156.15 152.00 160.18 150.06 163.70 147.33 Z" />
</g>
<g id="#f0a13fff">
<path fill="#f0a13f" opacity="1.00" d=" M 46.91 170.00 L 47.64 170.50 C 48.42 185.35 47.56 200.26 48.03 215.13 L 46.92 215.18 C 46.89 200.12 46.91 185.06 46.91 170.00 Z" />
</g>
<g id="#1e003bff">
<path fill="#1e003b" opacity="1.00" d=" M 202.25 170.56 L 203.09 170.00 C 203.12 183.66 203.06 197.33 203.12 210.99 C 202.91 212.49 203.65 214.53 202.10 215.52 C 202.15 200.54 201.81 185.53 202.25 170.56 Z" />
</g>
<g id="#db8550ff">
<path fill="#db8550" opacity="1.00" d=" M 86.03 192.57 C 99.05 199.81 111.92 207.32 124.74 214.91 C 112.03 222.75 98.78 229.70 85.97 237.39 C 86.04 222.45 85.94 207.51 86.03 192.57 Z" />
</g>
</svg>

<?xml version="1.0" encoding="utf-8"?>
<!-- Generator: Adobe Illustrator 26.0.3, SVG Export Plug-In . SVG Version: 6.00 Build 0)  -->
<svg version="1.1" id="Layer_1" xmlns="http://www.w3.org/2000/svg" xmlns:xlink="http://www.w3.org/1999/xlink" x="0px" y="0px"
	 viewBox="0 0 250 250" style="enable-background:new 0 0 250 250;" xml:space="preserve">
<style type="text/css">
	.st0{fill:#B31148;}
	.st1{fill:#840019;}
	.st2{fill:#B74F5B;}
	.st3{fill:#970F3C;}
	.st4{fill:#482F76;}
	.st5{fill:#FBC56F;}
	.st6{fill:#50358C;}
	.st7{fill:#402559;}
	.st8{fill:#442D6E;}
	.st9{fill:#B53D54;}
	.st10{fill:#F09F3B;}
	.st11{fill:#190037;}
	.st12{fill:#F3AF5D;}
	.st13{fill:#ED8F56;}
	.st14{fill:#F0A13F;}
	.st15{fill:#1E003B;}
	.st16{fill:#DB8550;}
</style>
<g id="_x23_b31148ff">
	<path class="st0" d="M46.9,35.1C59.8,27.5,73,20.2,86,12.6c12.9,7.7,26.2,14.8,39,22.6c12.9-7.7,26.1-14.8,39-22.6
		c12.8,7.5,25.7,14.9,38.7,22.1l-0.6,1.1c-12.8,7.3-25.4,15.1-38.5,21.9C151,65.4,137.9,72.2,125.4,80c-0.1,0.1-0.3,0.2-0.4,0.3
		c-13.1,7.3-25.8,15.2-39,22.2c-12.8-7.1-25.3-14.7-38.1-21.8c-0.5,14.9,0,29.8-0.2,44.8l-0.6-0.3C46.9,110.1,47.1,95,46.9,80
		C46.9,65,46.9,50.1,46.9,35.1 M47.8,35.7c-0.3,14.6-0.3,29.2,0,43.8C60.7,72.5,73.2,64.9,86,57.8C73.4,50.2,60.7,42.8,47.8,35.7z"
		/>
</g>
<g id="_x23_840019ff">
	<path class="st1" d="M202.7,34.7c0.4,1.8,0.4,3.5,0.4,5.3c-0.1,13.3,0.1,26.6-0.1,39.8l-0.6,0.5l-0.3-0.9c0-14.5,0-29.1,0-43.6
		L202.7,34.7z"/>
</g>
<g id="_x23_b74f5bff">
	<path class="st2" d="M47.8,35.7c12.8,7.1,25.6,14.5,38.2,22c-12.8,7.2-25.3,14.8-38.2,21.7C47.6,64.9,47.5,50.3,47.8,35.7z"/>
</g>
<g id="_x23_970f3cff">
	<path class="st3" d="M163.6,57.7c13.1-6.8,25.6-14.6,38.5-21.9c0,14.5,0,29.1,0,43.6C189.2,72.2,176.8,64.4,163.6,57.7z"/>
	<path class="st3" d="M86,102.5c13.2-7,25.9-14.9,39-22.2c0,14.9,0,29.8,0,44.7c-12.9,7.6-26,14.9-38.9,22.5l-0.3-0.1
		C86.2,132.4,85.9,117.4,86,102.5z"/>
</g>
<g id="_x23_482f76ff">
	<path class="st4" d="M163.6,57.7c13.1,6.7,25.6,14.5,38.4,21.7l0.3,0.9c-12.6,7.7-25.5,14.9-38.3,22.1c-9.4-5-18.4-10.5-27.6-15.8
		c-3.8-2.1-7.5-4.2-11-6.6C137.9,72.2,151,65.4,163.6,57.7z"/>
</g>
<g id="_x23_fbc56fff">
	<path class="st5" d="M7.8,102.5c13-7.5,26.1-15,39.1-22.5c0.2,15.1,0,30.1,0.1,45.2c-12.8-6.9-25.1-14.7-37.9-21.6
		C8.8,103.3,8.2,102.8,7.8,102.5z"/>
	<path class="st5" d="M86,147.4c13-7.5,26-14.9,38.9-22.5c12.8,7.6,25.8,14.9,38.7,22.4c-3.5,2.7-7.6,4.7-11.4,6.9
		c-9.1,5.3-18.3,10.5-27.4,15.9C112,162.4,98.9,155.2,86,147.4z"/>
</g>
<g id="_x23_50358cff">
	<path class="st6" d="M125,80.3c0.1-0.1,0.3-0.2,0.4-0.3c3.5,2.5,7.3,4.6,11,6.6c9.2,5.3,18.3,10.8,27.6,15.8
		c-0.1,14.9,0,29.8,0,44.6l-0.3,0.3c-12.9-7.5-25.9-14.8-38.7-22.4C125,110.1,125,95.2,125,80.3z"/>
	<path class="st6" d="M125.1,214.9c12.9-7.5,25.9-15.1,38.9-22.5c0,15,0,30,0,45C151.2,229.7,137.9,222.6,125.1,214.9z"/>
</g>
<g id="_x23_402559ff">
	<path class="st7" d="M202.4,80.3l0.6-0.5c0.3,15.1-0.2,30.2,0.2,45.3c12.7-7,25.1-14.5,37.8-21.5c0.1,13.1,0.1,26.2,0,39.4
		c-0.1,1.6,0.3,3.2,0.8,4.7c-13,7.3-25.8,14.8-38.7,22.2l-0.8,0.6c-0.4,15-0.1,30-0.1,45c-12.6,7.4-25.5,14.5-38.1,21.9
		c-0.1-15,0-30,0-45c0-15.1,0-30.2,0-45.3c0-14.9,0-29.7,0-44.6C176.9,95.2,189.8,88,202.4,80.3z"/>
</g>
<g id="_x23_442d6eff">
	<path class="st8" d="M203,79.8c12.9,7.8,26.1,15.1,39.2,22.7c-0.3,0.3-0.9,0.8-1.2,1.1c-12.7,7-25.1,14.6-37.8,21.5
		C202.8,110.1,203.2,94.9,203,79.8z"/>
</g>
<g id="_x23_b53d54ff">
	<path class="st9" d="M47.8,80.7c12.8,7.1,25.3,14.7,38.1,21.8c-0.1,14.9,0.2,29.9-0.2,44.8c-12.8-7.1-25.4-14.6-38.2-21.8
		C47.8,110.5,47.4,95.6,47.8,80.7z"/>
</g>
<g id="_x23_f09f3bff">
	<path class="st10" d="M7.8,102.5c0.3,0.3,1,0.8,1.3,1.1C8.6,114.1,9,124.5,8.9,135c-0.1,4.3,0.7,8.6-0.6,12.8
		c-0.2-1.6-0.4-3.2-0.4-4.8C7.9,129.5,7.8,116,7.8,102.5z"/>
</g>
<g id="_x23_190037ff">
	<path class="st11" d="M241,103.7c0.3-0.3,0.9-0.8,1.2-1.1c-0.3,15.1,0.4,30.2-0.3,45.2c-0.5-1.5-0.9-3.1-0.8-4.7
		C241.1,129.9,241.1,116.8,241,103.7z"/>
</g>
<g id="_x23_f3af5dff">
	<path class="st12" d="M9.1,103.6c12.8,6.8,25.1,14.6,37.9,21.6l0.6,0.3c12.7,7.2,25.3,14.8,38.2,21.8l0.3,0.1
		c12.8,7.8,26,15,38.9,22.7c0.1,14.9,0.2,29.9-0.1,44.9l-0.1-0.1c-12.8-7.6-25.7-15.1-38.7-22.3c-0.1,14.9,0,29.9-0.1,44.8
		c-12.6-7.3-25.3-14.5-37.9-21.7l0-0.5c-0.5-14.9,0.4-29.8-0.4-44.6l-0.7-0.5c-12.9-7.5-25.7-14.9-38.7-22.2
		c1.3-4.1,0.5-8.5,0.6-12.8C9,124.5,8.6,114.1,9.1,103.6z"/>
</g>
<g id="_x23_ed8f56ff">
	<path class="st13" d="M163.7,147.3l0.3-0.3c0,15.1,0,30.2,0,45.3c-13,7.4-26,14.9-38.9,22.5l-0.2,0.1c0.2-15,0.1-29.9,0.1-44.9
		c9.1-5.4,18.3-10.6,27.4-15.9C156.1,152,160.2,150.1,163.7,147.3z"/>
</g>
<g id="_x23_f0a13fff">
	<path class="st14" d="M46.9,170l0.7,0.5c0.8,14.9-0.1,29.8,0.4,44.6l-1.1,0C46.9,200.1,46.9,185.1,46.9,170z"/>
</g>
<g id="_x23_1e003bff">
	<path class="st15" d="M202.2,170.6l0.8-0.6c0,13.7,0,27.3,0,41c-0.2,1.5,0.5,3.5-1,4.5C202.1,200.5,201.8,185.5,202.2,170.6z"/>
</g>
<g id="_x23_db8550ff">
	<path class="st16" d="M86,192.6c13,7.2,25.9,14.8,38.7,22.3c-12.7,7.8-26,14.8-38.8,22.5C86,222.4,85.9,207.5,86,192.6z"/>
</g>
</svg>
